X:1
T:Title
%%score { 1 | 2 }
L:1/8
Q:1/4=100
M:4/4
K:D
V:1 treble nm="Grand Piano"
V:2 bass 
V:1
 [FA]>[GB] [FA]>[A,EG] [A,DF]2 [DFA]2 | [CEG]>[FA] [GB]>[EG] F4 | F>G F>E D2 F2 | %3
w: J.~M.~Black * * * * *|||
 [CE]>[DF] [EG]>[DF] [CE]4 | F>F F>[EG] [FA]2 [FA]2 | [FA]>[FA] [Fd]>[Ac] B4 | %6
w: |||
 E>F G>B [FA]2 [DF]2 | [CE]>[CE] [CF]>[K:bass][G,CE] [F,D]4 | %8
w: ||
 [DFA]2 [A,DF]2 [F,D]>[A,DF] [DFA]>[Fd] | [CEc]2 [CEB]2 [CEG]4 | %10
w: ||
 [CEG]2[K:bass] [A,CE]2 [E,A,C]>[K:treble][A,CE] [CEG]>[CGB] | [DGB]2 [DFA]2 [A,DF]4 | %12
w: ||
 [DFA]2 [A,DF]2 [F,D]>[A,DF] [DFA]>[Fd] | [Ec]2 [EF]2 [FB]4 |[M:9/8] d>dc- c/B/ A2 F3 | %15
w: |||
[M:4/4] [CF]>[CF] [CF]>[CE] D4[Q:1/4=98][Q:1/4=96][Q:1/4=94][Q:1/4=92][Q:1/4=90][Q:1/4=88][Q:1/4=85][Q:1/4=83][Q:1/4=81][Q:1/4=79][Q:1/4=77] |] %16
w: |
V:2
 [D,D]>[D,D] [D,D]>D, D,2 D,2 | A,,>[A,,A,] [A,,A,]>[A,,A,] [D,A,D]4 | %2
 [D,A,D]>[D,A,E] [D,A,D]>[G,A,C] [F,A,]2 [D,A,D]2 | [A,,A,]>[A,,A,] [A,,A,]>[A,,A,] [A,,A,]4 | %4
 [D,A,D]>[D,A,D] [D,A,D]>[D,A,] [D,D]2 [D,D]2 | [D,D]>[D,D] [D,D]>[F,D][K:treble] [G,DG]4 | %6
 [A,C]>[A,D] [A,E]>[A,G][K:bass] [D,D]2 [D,A,]2 | [A,,A,]>[A,,A,] [A,,A,]>A,, D,4 | %8
 D,2 D,2 D,>D, D,>[D,C] | A,2 A,2 A,4 | A,,2 A,,2 A,,>A,, A,,>A,, | D,2 D,2 D,4 | %12
 D,2 D,2 D,>D, D,>[D,A,] | [F,^A,]2 [F,A,]2 [B,,B,]4 | %14
[M:9/8][K:treble] [^G,B,=F]>[G,B,F][G,CF]- [G,CF]/[G,DF]/ [A,D^F]2[K:bass] [A,D]3 | %15
[M:4/4] [A,,A,]>[A,,A,] [A,,A,]>[A,,G,] [D,F,]4 |] %16

